X:1088
T:Neckens polska
R:Polska
S:Efter Arvid August Afzelius 
N:Finns upptecknad i "[[Notböcker/TraditionerAvSvenskaFolkdansarH%C3%A4fte2|Traditioner av Svenska folkdansar]]"
B:Traditioner av Svenska folkdansar
Z:Klas Krantz, 2006
L:1/8
M:3/4
K:Dm

"Dm"D>F A2"A7"^c2 | "Dm"e>f d2"C"=c2 | "Dm"A2 F2 "A7"A>G | "Dm"E>FD2z2 :|
"F"F2A2c>A | "Gm"G2 GF/G/"F"A2 | F2A2c>A | "Gm"GG ~A/G/F/G/ "F"A2 |
F>A "Gm"G2 "A7"A>G | E>F "Dm"D2d2 |: "A7"^c>d "Dm"AF A>G | "A7"E>F "Dm"D2z2 :|]
(:musicend:)

Vingåkersdansens valsmelodis proveniens.

Som en av Skansens danspresentatörer måste jag korrigera uppgiften att Vingåkersdansens melodi skulle ha Tierp som proveniens. Här måste ha skett en sammanblandning av dansmelodier.
Vingåkersdansen införlivades i Philochoros repertoar 1890. Vid samma tidpunkt bytte man ut den gamla vingåkersvalsen mot den som fortfarande används. Den "nya" valsen upptecknades sommaren 1890 efter drängen Erik Strandlund i byn Stråkära i Skogs socken, Hälsingland, av philochoristen och sedermera kapellmästaren Ruben Liljefors, enl uppgifter i Philochoros arkiv./Lasse Th


[[!Ackord]]

(:music:)
